X:1
T:Title
%%score [ ( 1 2 ) ( 3 4 ) ]
L:1/8
Q:1/4=120
M:4/4
K:G
V:1 treble nm="Midi_74"
V:2 treble 
V:3 treble nm="Midi_74"
V:4 treble 
V:1
 B8 | B4 (A2 G2) | A8 || c6 B2 | A4 F4 | G4 A4 | B8 || B8 | ^c4 c4 | d8 || F8 | %11
"^After G.F. Cobb, by\nRichard Thiele (1847-1903)" G4 (A2 B2) | F4 E4 | D8 || d8 | d4 (c2 B2) | %16
 c8 || A8 | B4 d4 | c4 B4 | c8 || c8 | c4 (B2 A2) | B8 || d8 | c4 (G2 A2) | B4 A4 | G8 |] %28
V:2
 D8 | ^C4 C4 | D8 || E8 | E4 D4 | D4 D4 | D8 || D8 | E4 E4 | D8 || D8 | E4 (F2 G2) | D4 ^C4 | D8 || %14
 =F8 | E4 E4 | E8 || E8 | =F4 F4 | E4 E4 | E8 || _E8 | D4 D4 | D8 || G8 | G4 G4 | G4 F4 | D8 |] %28
V:3
 B,8 | G,4 G,4 | F,8 || A,6 ^G,2 | A,4 A,4 | G,4 F,4 | G,8 || B,8 | _B,4 B,4 | A,8 || B,8 | %11
 B,4 (A,2 G,2) | A,4 (A,2 G,2) | F,8 || A,8 | ^G,4 G,4 | A,8 || A,8 | A,4 A,4 | A,4 ^G,4 | A,8 || %21
 !courtesy!=G,8 | F,4 F,4 | G,8 || B,8 | C4 C4 | D4 (D2 C2) | B,8 |] %28
V:4
 G,8 | E,4 E,4 | D,8 || A,,6 B,,2 | C,4 D,4 | B,,4 D,4 | G,,8 || G,8 | G,4 G,4 | F,8 || B,8 | %11
 G,4 (F,2 E,2) | A,4 A,,4 | D,8 || B,,8 | E,4 E,4 | A,,8 || C,8 | D,4 B,,4 | E,4 E,4 | A,,8 || %21
 A,,8 | D,4 D,4 | G,,8 || =F,8 | E,4 _E,4 | D,4 D,4 | G,,8 |] %28

